X:1
T:Uccelin lascivetto
T:Adriano Banchieri
T:Source : Canzonette a tre voci---Venetia---R.Amadino---1597. Editor : André Vierendeels (01/04/17).
T:Notes : Original clefs : C1, C1, C4 "Canzonetta del Cardillo. Prima parte See also the "Seconda parte : Tu il sonno lusingando" (same composer) And the "Terza et ultima parte : Ahime, chi ti rinselva" (same composer)
T:Uccelin lascivetto
T:©
T:©
T:©
C:Adriano Banchieri
Z:©
%%score [ 1 2 3 ]
L:1/8
Q:1/4=98
M:2/4
K:F
V:1 treble nm="Soprano 1" snm="S 1"
V:2 treble nm="Soprano 2" snm="S 2"
V:3 treble-8 nm="Tenor" snm="T"
V:1
 A3 B |[M:4/4] c6 BA | G2 A2 c3 B |: A6 BA | G2 A2 z4 | z2 F2 FGAB | c2 A2 z2 c2 | FGAB c2 F2 | %8
w: Uc- ce-|lin la- sci-|vet- to, Uc- ce-|lin la- sci-|vet- to,|Lo- qua- c'e gar- ru-|let- to, lo-|qua- c'e gar- ru- let- to,|
 z2 c2 =B2 cc | c3 B AG F2- | F2 E2 F2 AB | c6 BA |1 G2 A2 c3 B :|2 F2 E2 F4 |: A4 G4- | G2 G2 G4 | %16
w: lo- qua- c'e, lo-|qua- c'e gar- ru- let-|* * to, uc- cel-|lin la- sci-|vet- to, uc- ce-|(let)- * to.|Che con|_ tuoi dol-|
 F4 E4 | A6 GF | G4 A4 | A4 B4 | c4 d4 | e4 f2 F2 | G2 A4 B2- | B2 c2 G2 c2 | G6 E2 | %25
w: ci'ac- cen-||* ti,|ra- pir|po- te-|st'il Ciel, ra-|pir po- te-|* st'il Ciel, il|Ciel e-|
 FGAB c3 B/A/ | G2 F2 E2 F2 |1 G4 A4 :|2 G4 A4- ||[M:2/4] A4 |] %30
w: gli'e- * * * * * *|* le- men- *|* ti,|(men)- ti.|_|
V:2
 F3 G |[M:4/4] A6 GF | E2 F2 A3 G |: F6 GF | D2 F2 z2 F2 | FGAB c2 F2 | z2 F2 E2 F2 | z2 c2 FGAB | %8
w: Uc- ce-|lin la- sci-|vet- to, Uc- ce-|lin la- sci-|vet- to, lo-|qua- c'e gar- ru- let- to,|lo- qua- ce,|lo- qua- c'e gar- ru-|
 c2 G4 E2 | FGAB c3 B/A/ | G4 A2 FG | A6 GF |1 E2 F2 A3 G :|2 G4 A4 |: F4 E4- | E2 E2 E4 | %16
w: let- to, lo-|qua- c'e gar- ru- let- * *|* to, uc- cel-|lin, la- sci-|vet- to, uc- ce-|(let)- to.|Che con|_ tuoi dol-|
 D4 ^C4- | C4 D4- | D4 z2 C2- | C2 D4 E2- | E2 F4 G2 | G2 FG A4 | z2 E2 F4 | G4 A4 | =B4 c2 c2 | %25
w: ci'ac- cen-|* ti,|_ ra-|* pir po-|* te- st'il|Ciel, _ _ _|ra- pir|po- te-|st'il Ciel e-|
 cBAG A3 G/F/ | E2 F2 G2 F2- |1 F2 E2 F4 :|2 F2 E2 F4- ||[M:2/4] F4 |] %30
w: gli'e _ _ _ _ _ _|_ le- men- *|* * ti,.|(men)- * ti.|_|
V:3
 z4 |[M:4/4] F3 G A2 BF | c2 F2 z4 |: F3 E D2 GA | B2 F2 z4 | z4 z2 F2 | FGAB c2 F2 | z4 z2 F2 | %8
w: |Uc- cel- lin la- sci-|vet- to,|uc- cel- lin la- sci-|vet- to,|lo-|qua- c'e gar- ru- let- to,|lo-|
 CDEF G2 C2 | z2 c2 FGAB | c4 F4 | z2 FG A2 BF |1 c2 F2 z4 :|2 c4 F4 |: F4 c4- | c2 c2 c4 | %16
w: qua- c'e gar- ru- let- to|lo- qua- c'e gar- ru-|let- to,|uc- cel- lin la- sci-|vet- to,|let- to.|Che con|_ tuoi dol-|
 d4 A4- | A4 B4- | B4 z4 | F4 G4 | A4 B4 | c4 F4 | C4 D4 | E4 F4 | G4 C4 | z2 F2 FGAB | %26
w: ci'ac- cen-|* ti,|_|ra- pir|po- te-|st'il Ciel,|ra- pir|po- te-|st'il Ciel|e gli'e _ _ _|
 c2 d2 c4- |1 c4 F4 :|2 c4 F4- ||[M:2/4] F4 |] %30
w: _ le- men-|* ti,|(men)- ti.|_|

